icons/op-minus2-24.svg

<svg width="24" height="24" viewBox="0 0 24 24" fill="none" xmlns="http://www.w3.org/2000/svg">
<path d="M18.651 4H5.34902C4.59608 4 4 4.59725 4 5.32024V18.6798C4 19.4028 4.59608 20 5.34902 20H18.651C19.4039 20 20 19.4028 20 18.6798V5.32024C20 4.59725 19.4039 4 18.651 4ZM17.3333 13.336H6.66667V10.664H17.3333V13.336Z" fill="black"/>
</svg>

<svg xmlns="http://www.w3.org/2000/svg" width="24" height="24" viewBox="0 0 24 24"><path d="M18.651 4H5.349C4.596 4 4 4.597 4 5.32v13.36c0 .723.596 1.32 1.349 1.32h13.302c.753 0 1.349-.597 1.349-1.32V5.32C20 4.597 19.404 4 18.651 4Zm-1.318 9.336H6.667v-2.672h10.666v2.672Z"/></svg>
